src/main/resources/icons/PythonProfilerIcons/icons/com/jetbrains/python/profiler/Open-PYHeapSnapshot_dark.svg

<svg xmlns="http://www.w3.org/2000/svg" width="16" height="16" viewBox="0 0 16 16">
  <defs>
    <linearGradient id="open-pyheapsnapshot_dark-a" x1="0%" x2="74.521%" y1="0%" y2="64.11%">
      <stop offset="0%" stop-color="#5A9FD4"/>
      <stop offset="100%" stop-color="#306998"/>
    </linearGradient>
    <linearGradient id="open-pyheapsnapshot_dark-b" x1="50%" x2="23.443%" y1="82.276%" y2="44.914%">
      <stop offset="0%" stop-color="#FFD43B"/>
      <stop offset="100%" stop-color="#FFE873"/>
    </linearGradient>
  </defs>
  <g fill="none" fill-rule="evenodd">
    <path fill="#AFB1B3" d="M9,4 C7.8954305,4 7,4.8954305 7,6 L7,7 L6,7 C4.8954305,7 4,7.8954305 4,9 L3,9 L3,7 L0,7 L0,6 L3,6 L3,5 L0,5 L0,4 L3,4 L3,3 L0,3 L0,2 L3,2 L3,0 L9,0 L9,2 L12,2 L12,3 L9,3 L9,4 Z"/>
    <g fill-rule="nonzero" transform="translate(5 5)">
      <path fill="url(#open-pyheapsnapshot_dark-a)" d="M5.41107421,0.0387939983 C4.96426432,0.0408701351 4.53757088,0.0789765653 4.16212459,0.145411649 C3.05610686,0.340808664 2.85529691,0.749791369 2.85529681,1.50402515 L2.85529681,2.50013863 L5.46895236,2.50013863 L5.46895236,2.83217645 L2.85529681,2.83217645 L1.87441443,2.83217645 C1.11481336,2.83217645 0.449684913,3.28874048 0.241641246,4.15728154 C0.00166550661,5.1528312 -0.00897872198,5.77407039 0.241641246,6.81358415 C0.42742922,7.58735798 0.871116066,8.13868904 1.63071694,8.13868923 L2.52935142,8.13868923 L2.52935142,6.94457155 C2.52935142,6.08189199 3.27576212,5.32093723 4.16212459,5.32093704 L6.77273392,5.32093704 C7.49943505,5.32093704 8.07956198,4.72259498 8.07956169,3.99278573 L8.07956169,1.50402515 C8.07956169,0.795709727 7.4820174,0.263626629 6.77273392,0.145411649 C6.32374693,0.0706720373 5.8578841,0.0367178614 5.41107421,0.0387939983 Z M3.99762878,0.839949497 C4.26760144,0.839949497 4.48806998,1.0640192 4.48806998,1.33952934 C4.48806978,1.61406295 4.26760144,1.83606297 3.99762878,1.83606297 C3.72668826,1.83606288 3.50718759,1.61406285 3.50718759,1.33952934 C3.50718749,1.0640193 3.72668826,0.839949497 3.99762878,0.839949497 Z"/>
      <path fill="url(#open-pyheapsnapshot_dark-b)" d="M8.40550708,2.83217645 L8.40550708,3.99278573 C8.40550708,4.89259045 7.6426467,5.64992855 6.77273392,5.64992865 L4.16212459,5.64992865 C3.44703496,5.64992865 2.85529691,6.26194886 2.85529681,6.97807995 L2.85529681,9.46684024 C2.85529681,10.1751558 3.47122642,10.591779 4.16212459,10.7949915 C4.98946108,11.0382611 5.78283346,11.0822261 6.77273392,10.7949915 C7.43073224,10.6044796 8.07956198,10.2210732 8.07956169,9.46684024 L8.07956169,8.47072706 L5.46895236,8.47072706 L5.46895236,8.13868923 L8.07956169,8.13868923 L9.38638985,8.13868923 C10.145991,8.13868923 10.4290496,7.60885112 10.6932167,6.81358415 C10.9660925,5.99486918 10.9544818,5.20754206 10.6932167,4.15728154 C10.5054936,3.40109399 10.146957,2.83217645 9.38638985,2.83217645 L8.40550708,2.83217645 Z M6.93722972,9.13480271 C7.20817044,9.134803 7.42767091,9.35680303 7.42767091,9.63133605 C7.42767072,9.9068458 7.20817015,10.1309159 6.93722972,10.1309159 C6.66725677,10.1309159 6.44678853,9.9068458 6.44678853,9.63133605 C6.44678872,9.35680303 6.66725648,9.13480271 6.93722972,9.13480271 Z"/>
    </g>
  </g>
</svg>

<svg xmlns="http://www.w3.org/2000/svg" width="16" height="16" viewBox="0 0 16 16"><rect id="frame" width="16" height="16" fill="none"/><defs><linearGradient id="a" x1="0%" x2="74.521%" y1="0%" y2="64.11%"><stop offset="0%" stop-color="#5A9FD4"/><stop offset="100%" stop-color="#306998"/></linearGradient><linearGradient id="b" x1="50%" x2="23.443%" y1="82.276%" y2="44.914%"><stop offset="0%" stop-color="#FFD43B"/><stop offset="100%" stop-color="#FFE873"/></linearGradient></defs><g fill="none" fill-rule="evenodd"><path fill="#AFB1B3" d="M9 4a2 2 0 0 0-2 2v1H6a2 2 0 0 0-2 2H3V7H0V6h3V5H0V4h3V3H0V2h3V0h6v2h3v1H9v1z"/><g fill-rule="nonzero"><path fill="url(#a)" d="M5.411.039c-.447.002-.873.04-1.249.106C3.056.341 2.855.75 2.855 1.504V2.5H5.47v.332H1.875c-.76 0-1.425.457-1.633 1.325-.24.996-.251 1.617 0 2.657.185.773.63 1.325 1.389 1.325h.898V6.945c0-.863.747-1.624 1.633-1.624h2.61c.727 0 1.308-.598 1.308-1.328V1.504c0-.708-.598-1.24-1.307-1.359A8.152 8.152 0 0 0 5.41.04zm-1.413.8c.27 0 .49.225.49.5s-.22.497-.49.497a.493.493 0 0 1-.49-.496c0-.276.219-.5.49-.5z" transform="translate(5 5)"/><path fill="url(#b)" d="M8.406 2.832v1.16c0 .9-.763 1.658-1.633 1.658h-2.61c-.716 0-1.308.612-1.308 1.328v2.489c0 .708.616 1.125 1.307 1.328.827.243 1.62.287 2.61 0 .659-.19 1.308-.574 1.308-1.328V8.47H5.469v-.332h3.917c.76 0 1.043-.53 1.307-1.325.273-.82.261-1.606 0-2.657-.188-.756-.546-1.325-1.307-1.325h-.98zM6.937 9.135c.271 0 .49.222.49.496 0 .276-.219.5-.49.5a.496.496 0 0 1-.49-.5c0-.274.22-.496.49-.496z" transform="translate(5 5)"/></g></g></svg>
